assets/images/arrow-white-submit.svg

<svg width="11" height="11" viewBox="0 0 11 11" fill="none" xmlns="http://www.w3.org/2000/svg">
<path d="M10.4931 1.25739C10.4931 0.843181 10.1573 0.507395 9.74309 0.507395L2.99309 0.507394C2.57888 0.507394 2.24309 0.843181 2.24309 1.25739C2.24309 1.67161 2.57888 2.00739 2.99309 2.00739H8.99309V8.00739C8.99309 8.42161 9.32888 8.75739 9.74309 8.75739C10.1573 8.75739 10.4931 8.42161 10.4931 8.00739L10.4931 1.25739ZM1.78814 10.273L10.2734 1.78772L9.21276 0.727064L0.727482 9.21235L1.78814 10.273Z" fill="white"/>
</svg>

<svg width="11" height="11" fill="none" xmlns="http://www.w3.org/2000/svg"><path d="M10.493 1.257a.75.75 0 0 0-.75-.75h-6.75a.75.75 0 0 0 0 1.5h6v6a.75.75 0 1 0 1.5 0v-6.75Zm-8.705 9.016 8.485-8.485-1.06-1.06L.727 9.211l1.061 1.061Z" fill="#fff"/></svg>
